X:1
T:Custodiscimi (Ma Naavou)
T:Salmo 15
T:Tradizionale ebraico
T:Scritto con MuseScore, un software libero e gratuito: http://musescore.org/it
Z:Scritto con MuseScore, un software libero e gratuito: http://musescore.org/it
%%score ( 1 2 ) ( 3 4 )
L:1/8
Q:1/4=72
M:4/4
K:Bb
V:1 treble nm="Alto"
V:2 treble 
V:3 bass nm="Tenor"
V:4 bass 
V:1
|:"^Adagio" G2 dc d3 B | c2 d2 B2 AG | AB c2 B2 AG | A2 B2 A4 | G2 dc d3 B | cc cd B2 AG | %6
 AB c2 B2 AG | A2 F2 G2 ||"^Rit." BA B2 c2 A3 F | BA B2 c2 BA | B2 c2 A3 F | BA G2 G2 dc | %12
 d2 e2 c3 F | dc d2 e2 dc | d2 e2 c3 F | dc B2 B4 :| %16
V:2
|: G2 BA B3 G | G2 ^F2 G2 DD | =FF F2 F2 DD | E2 E2 D4 | G2 BA B3 G | GG G^F G2 DD | FF F2 F2 DD | %7
w: |||||||
w: 1\-Ho det\- to~a Dio, sen\-|za di Te, al\- cun|be\- ne non ho, cus\- to|di\- sci\- mi.|Ma\- gni\-- fi\- ca~è la|mia e\- re\- di\- tà, Be\- ne\-|det\- to sei Tu, sem\- pre|
 E2 D2 D2 || GG G2 E2 F3 F | FF F2 G2 GG | G2 E2 F3 F | EE E2 D2 BA | B2 c2 A3 F | BA B2 c2 BA | %14
w: |||||||
w: sei con me.|Cu\- sto\- di\- sci\- mi, mia|for\- za sei Tu, cus\- to\-|di\- sci\- mi, mia|gio\- ia Ge\- sù. Cus\- to\-|di\- sci\- mi, mia|for\- za sei Tu, cu\- sto\-|
 B2 c2 A3 F | BA G2 G4 :| %16
w: ||
w: di\- sci\- mi, mia|gio\- ia Ge\- sù.|
V:3
|: G,2 G,G, G,3 G, | C2 A,2 G,2 CB, | CB, A,2 D2 B,B, | G,2 G,2 ^F,4 | G,2 G,G, G,3 G, | %5
 CC A,A, G,2 CB, | CB, A,2 D2 B,B, | G,2 C2 B,2 || DC D2 C2 C3 F, | DC D2 E2 DC | D2 E2 C3 F, | %11
 DC B,2 B,2 G,G, | G,2 G,2 A,3 A, | B,B, B,2 G,2 G,G, | G,2 G,2 A,3 A, | B,C D2 D4 :| %16
V:4
|: G,2 G,G, G,3 G, | E,2 D,2 G,2 G,G, | F,F, F,2 B,,2 B,,B,, | C,2 C,2 D,4 | G,2 G,G, G,3 G, | %5
 E,E, D,D, G,2 G,G, | F,F, F,2 B,,2 B,,B,, | C,2 D,2 G,2 || G,G, G,2 G,2 F,3 F, | %9
 B,,B,, D,2 C,2 G,G, | G,2 G,2 F,3 F, | E,E, C,2 G,2 G,G, | G,2 G,2 F,3 F, | B,,B,, D,2 C,2 G,G, | %14
 G,2 G,2 F,3 F, | E,E, D,2 G,4 :| %16

